!!!COA:	Josquin des Prez
!!!CDT:	~1450-1521/08/27
!!!COA2: Bauldeweyn
!!!COA3: Mouton
!!!OPR:	Missa Da pacem
!!!ONM:	1
!!!OTL:	Kyrie
!!!AGN:	Mass; Kyrie
!!!SCT:	NJE 3.2
!!!SCA:	New Josquin Edition 3.2
!!!voices: 4
!!!voices-OPR:	4
**kern	**kern	**kern	**kern
*staff4	*staff3	*staff2	*staff1
*Ivox	*Ivox	*Ivox	*Ivox
*I"Bassus	*I"Tenor	*I"Altus	*I"Superius
*I'B	*I'T	*I'A	*I'S
*>[A,B,C]	*>[A,B,C]	*>[A,B,C]	*>[A,B,C]
*>Kyrie1[A]	*>Kyrie1[A]	*>Kyrie1[A]	*>Kyrie1[A]
*>Christus[B]	*>Christus[B]	*>Christus[B]	*>Christus[B]
*>Kyrie2[C]	*>Kyrie2[C]	*>Kyrie2[C]	*>Kyrie2[C]
*clefF4	*clefGv2	*clefGv2	*clefG2
*k[b-]	*k[b-]	*k[b-]	*k[b-]
*M3/1	*M3/1	*M3/1	*M3/1
*met(O)	*met(O)	*met(O)	*met(O)
*>A	*>A	*>A	*>A
=1-	=1-	=1-	=1-
!!section: Kyrie I
!!!OMD: Kyrie I
0.r	0.r	0G	0.r
.	.	1F	.
=2	=2	=2	=2
0.r	0.r	2.G/	0g
.	.	4A/	.
.	.	2B-\	.
.	.	2G/	.
.	.	1A	1f
=3	=3	=3	=3
0G	0.r	4G/	2.g/
.	.	4A/	.
.	.	4B-\	.
.	.	4c\	4a/
.	.	2d\	2b-\
.	.	2e\	2g/
1F	.	2f\	1a
.	.	[2d\	.
=4	=4	=4	=4
2.G\	0.r	2d\]	0g
.	.	2e\	.
4A\	.	.	.
2B-\	.	2d\	.
2G\	.	1g	.
1A	.	.	1cc
.	.	2f#i\	.
=5	=5	=5	=5
1G	0.G	1g	2.b-\
.	.	.	4a/
1r	.	4g\	2b-\
.	.	4f\	.
.	.	4e\	1g
.	.	4d\	.
1C	.	1e	.
.	.	.	2cc\
=6	=6	=6	=6
1D	0.F	2r	2a/
.	.	1d	1b-
2BB-/	.	.	.
2C/	.	4c\	4a/
.	.	4B-\	4g/
1D	.	1A	1f
=7	=7	=7	=7
1.E-	0.G	1G	2r
.	.	.	2.b-\
.	.	1B-	.
.	.	.	4a/
2D\	.	.	4g/
.	.	.	4f/
1C	.	1c	1e
=8	=8	=8	=8
1BB-	0.B-	1F	1d
2GG/	.	1G	2d/
2.G\	.	.	4B-/
.	.	.	4c/
.	.	1r	4d/
4F\	.	.	4e/
4E\	.	.	4f/
4D\	.	.	4g/
=9	=9	=9	=9
1C	0.c	1r	4a/
.	.	.	4b-\
.	.	.	2.cc\
1E	.	1g	.
.	.	.	4b-\
.	.	.	1b-
1F	.	2.f\	.
.	.	.	2a/
.	.	4e\	.
=10	=10	=10	=10
2.G\	0B-	4d\	1b-
.	.	4c\	.
.	.	2B-\	.
4F\	.	.	.
2D\	.	2F/	2r
2.E-i\	.	2G/	2.g/
.	1r	1B-	.
4D\	.	.	4f/
2BB-/	.	.	2d/
=11	=11	=11	=11
2C/	0A	2.A/	2e/
2.D\	.	.	2.f/
.	.	8G/L	.
.	.	8F/J	.
.	.	1F	.
4C/	.	.	4g/
2AA/	.	.	2a/
1GG	1B-	1G	1d
=12	=12	=12	=12
2r	2.c\	1C	2e/
1C	.	.	1a
.	4B-\	.	.
.	2G/	2c\	.
2BB-/	2B-\	2d\	1g
2C/	1A	2e-\	.
2D\	.	2d\	2f#i/
=13	=13	=13	=13
2GG/	1G	2.B-\	2g/
1G	.	.	1b-
.	.	4c\	.
.	2r	4d\	.
.	.	4e\	.
2F\	1d	1f	2a/
2D\	.	.	2f/
[2F\	2c\	2f\	[2a/
=14	=14	=14	=14
2F\]	2A/	2c\	2a/]
2E-i\	1c	1e-i	2g/
2C/	.	.	2e-i/
1E-i	2B-\	2e-i\	1g
.	2G/	2B-\	.
2D\	[2B-\	[2d\	2f/
=15	=15	=15	=15
1BB-	2B-\]	2d\]	1d
.	2A/	2d\	.
0D	2F/	2A/	0f
.	2B-\	2d\	.
.	1A	[1d	.
=16	=16	=16	=16
2r	1r	1d]	2r
1G	.	.	1b-
.	2r	2r	.
2F\	1d	1f	2a/
2D\	.	.	2f/
[2F\	2c\	2f\	[2a/
=17	=17	=17	=17
2F\]	2A/	2c\	2a/]
2E-i\	1c	1e-i	2g/
2C/	.	.	2e-i/
1E-i	2B-\	2e-i\	1g
.	2G/	2B-\	.
2D\	[2B-\	[2d\	2f/
=18	=18	=18	=18
2BB-/	2B-\]	2d\]	2d/
2C/	2A/	2c\	2e/
2D\	2F/	2A/	2f/
2BB-/	2B-\	2d\	1g
2C/	1A	2e-i\	.
2D\	.	2d\	2f#i/
=19	=19	=19	=19
2.E-i\	[0.Gl	2B-\	[0.gl
.	.	2.e-i\	.
4D\	.	.	.
2C/	.	.	.
.	.	4d\	.
2BB-/	.	1d	.
1C	.	.	.
.	.	2c\	.
=20	=20	=20	=20
0.GGl	0.G]	0.dl	0.g]
!!LO:LB:i:g=z
=21||	=21||	=21||	=21||
*>B	*>B	*>B	*>B
!!section: Christe
!!!OMD: Christe
*M2/1	*M2/1	*M2/1	*M2/1
*met(C|)	*met(C|)	*met(C|)	*met(C|)
1.G	0r	1.B-	0r
4F\	.	4A/	.
4E\	.	4G/	.
=22	=22	=22	=22
2D\	0r	2F/	1r
1E-	.	1G	.
.	.	.	[1b-
4D\	.	4F/	.
4C/	.	4E/	.
=23	=23	=23	=23
2.BB-/	0B-	1D	2b-\]
.	.	.	4a/
4C/	.	.	4g/
2D\	.	2r	2f/
[2GG/	.	[2B-\	[2g/
=24	=24	=24	=24
4GG/]	0B-	2B-\]	2g/]
4AA/	.	.	.
4BB-/	.	4A/	4f/
4C/	.	4G/	4e/
2D\	.	2F/	1d
[2GG/	.	[2G/	.
=25	=25	=25	=25
2GG/]	0B-	2G/]	2r
2.GG/	.	4F/	1b-
.	.	4E/	.
.	.	2D/	.
4AA/	.	.	.
4BB-/	.	[2d\	4a/
4C/	.	.	4g/
=26	=26	=26	=26
2D\	0A	4d\]	2f/
.	.	4c\	.
2C/	.	2e-i\	1g
1D	.	[1d	.
.	.	.	2f#i/
=27	=27	=27	=27
1GG	0G	2d\]	0g
.	.	2.B-\	.
1r	.	.	.
.	.	4c\	.
.	.	2d\	.
=28	=28	=28	=28
1G	0r	4G/	0r
.	.	4A/	.
.	.	4B-\	.
.	.	4c\	.
[1G	.	2d\	.
.	.	[2e-i\	.
=29	=29	=29	=29
2G\]	0r	4e-\]	0g
.	.	4d\	.
2F\	.	2d\	.
1E-i	.	4c\	.
.	.	4B-\	.
.	.	4A/	.
.	.	4G/	.
=30	=30	=30	=30
1D	0r	1A	1f
[1E-i	.	2G/	[1g
.	.	[2c\	.
=31	=31	=31	=31
2E-\]	0r	4c\]	2g/]
.	.	4B-\	.
2D\	.	1B-	2f/
1C	.	.	1e-i
.	.	2A/	.
=32	=32	=32	=32
0BB-	0B-	2B-\	0d
.	.	1G	.
.	.	2F/	.
=33	=33	=33	=33
0GG	0B-	0G	1d
.	.	.	1g
=34	=34	=34	=34
0AA	0c	1C	1e
.	.	1c	1a
=35	=35	=35	=35
0BB-	0d	2B-\	1f
.	.	4A/	.
.	.	4G/	.
.	.	2F/	[1b-
.	.	[2G/	.
=36	=36	=36	=36
0E-i	0c	2G/]	2b-\]
.	.	1c	2a/
.	.	.	1g
.	.	4B-\	.
.	.	4A/	.
=37	=37	=37	=37
0D	0d	2B-\	1f
.	.	1c	.
.	.	.	1r
.	.	2Bni\	.
=38	=38	=38	=38
0C	0e-i	0c	0g
=39	=39	=39	=39
0D	1d	1r	1f
.	[1d	1F	1a
=40	=40	=40	=40
0E-i	2d\]	0G	1.g
.	4c\	.	.
.	4B-\	.	.
.	1c	.	.
.	.	.	4f/
.	.	.	4e-i/
=41	=41	=41	=41
[0Dl	[0dl	1A	[0fl
.	.	1B-	.
=42	=42	=42	=42
0D]	0d]	0Al	0f]
!!LO:LB:i:g=z
=43||	=43||	=43||	=43||
*>C	*>C	*>C	*>C
!!section: Kyrie II
!!!OMD: Kyrie II
*M3/1	*M3/1	*M3/1	*M3/1
*met(O)	*met(O)	*met(O)	*met(O)
0D	0.r	2r	0.r
.	.	1d	.
.	.	4c\	.
.	.	4B-\	.
1D	.	2A/	.
.	.	[2B-\	.
=44	=44	=44	=44
1C	0.r	2B-\]	0.r
.	.	2A/	.
1BB-	.	2.B-\	.
.	.	8A/L	.
.	.	8G/J	.
2.BB-/	.	2F/	.
.	.	[2B-\	.
4C/	.	.	.
=45	=45	=45	=45
2D\	0.r	2B-\]	0.r
2.E-i\	.	2.c\	.
4D\	.	4B-\	.
2BB-/	.	1B-	.
1C	.	.	.
.	.	2A/	.
=46	=46	=46	=46
1BB-	0d	4B-\	2r
.	.	4c\	.
.	.	4d\	1dd
.	.	4e\	.
4BB-/	.	1.f	.
4C/	.	.	.
4D\	.	.	4cc\
4E\	.	.	4b-\
2F\	1d	.	2a/
2G\	.	2d\	[2b-\
=47	=47	=47	=47
2E\	1c	2g\	2b-\]
2F\	.	2f\	2a/
2.G\	1B-	2.d\	2.b-\
8F\L	.	4e\	8a/L
8E\J	.	.	8g/J
2D\	2.B-\	2f\	2f/
[2G\	.	[2d\	[2b-\
.	4c\	.	.
=48	=48	=48	=48
2G\]	2d\	2d\]	2b-\]
2C/	2.e-i\	2.g\	2.cc\
1G	.	.	.
.	4d\	4f\	4b-\
.	2B-\	4d\	1b-
.	.	4e\	.
1F	1c	[1f	.
.	.	.	2a/
=49	=49	=49	=49
1BB-	1B-	1f]	0b-
2r	2r	1r	.
2.BB-/	2B-\	.	.
.	1B-	1r	1r
4C/	.	.	.
4D\	.	.	.
4E\	.	.	.
=50	=50	=50	=50
4F\	1A	0.r	0.r
4E\	.	.	.
4D\	.	.	.
4C/	.	.	.
1D	1B-	.	.
1C	2.c\	.	.
.	4B-\	.	.
=51	=51	=51	=51
2BB-/	2G/	0.r	0.r
2AA/	2.A/	.	.
2BB-/	.	.	.
.	4G/	.	.
2C/	1G	.	.
1AA	.	.	.
.	2F#i/	.	.
=52	=52	=52	=52
0.GG	0G	1r	1r
.	.	1B-	2r
.	.	.	2b-\
.	1r	4B-\	1b-
.	.	4c\	.
.	.	4d\	.
.	.	4e\	.
=53	=53	=53	=53
0.r	0.r	4f\	1a
.	.	4e\	.
.	.	4d\	.
.	.	4c\	.
.	.	1d	1b-
.	.	1c	2.cc\
.	.	.	4b-\
=54	=54	=54	=54
0.r	0.r	2B-\	2g/
.	.	2A/	2.a/
.	.	2B-\	.
.	.	.	4g/
.	.	2c\	1g
.	.	1A	.
.	.	.	2f#i/
=55	=55	=55	=55
2r	1r	2.G/	0g
2.GG/	.	.	.
.	.	4A/	.
.	2r	4B-\	.
4AA/	.	4c\	.
4BB-/	2B-\	4d\	.
4C/	.	4e\	.
2D\	1B-	2f\	1r
2E\	.	4e\	.
.	.	4d\	.
=56	=56	=56	=56
1F	1A	1c	1f
1G	1B-	2B-\	1d
.	.	1G	.
2.C/	2.c\	.	2.e/
.	.	[2g\	.
4D\	4B-\	.	4f/
=57	=57	=57	=57
2E\	2G/	2g\]	4g/
.	.	.	4e/
2F\	2A/	2f\	2.a/
2G\	2B-\	2d\	.
.	.	.	4g/
2C/	2c\	2e\	1g
1D	1A	1d	.
.	.	.	2f#i/
=58	=58	=58	=58
2r	1r	2r	2g/
2G\	.	2d\	2b-\
2F\	2r	1f	2a/
2D\	2d\	.	2f/
2E-i\	2c\	2e-\	2g/
2F\	2A/	2c\	2a/
=59	=59	=59	=59
2E-\	2B-\	1e-i	2.g/
2C/	2c\	.	.
.	.	.	4e/
2D\	2B-\	2d\	2f/
2E-i\	2G/	2B-\	2g/
2D\	2A/	2d\	2f/
2BB-/	2B-\	[2f\	2d/
=60	=60	=60	=60
2C/	2A/	4f\]	2e/
.	.	4e\	.
2D\	2F/	2.d\	1a
1E-i	1G	.	.
.	.	4c\	.
.	.	4c\	2.g/
.	.	4B-\	.
1D	1A	1d	.
.	.	.	4f#i/
.	.	.	4f#i/
.	.	.	4e/
=61	=61	=61	=61
2r	1G	2r	2g/
2G\	.	2d\	2b-\
2F\	2r	1f	2a/
2D\	2d\	.	2f/
2E-i\	2c\	2e-\	2g/
2F\	2A/	2c\	2a/
=62	=62	=62	=62
2E-i\	2B-\	1e-i	2.g/
2C/	2c\	.	.
.	.	.	4e/
2D\	2B-\	2d\	2f/
2E-i\	2G/	2B-\	2g/
2D\	2A/	2d\	2f/
2BB-/	2B-\	[2f\	2d/
=63	=63	=63	=63
2C/	2A/	4f\]	2e/
.	.	4e\	.
2D\	2F/	2.d\	1a
1E-i	1G	.	.
.	.	4c\	.
.	.	4c\	2.g/
.	.	4B-\	.
1D	1A	[1dl	.
.	.	.	4f#i/
.	.	.	4f#i/
.	.	.	4e/
=64	=64	=64	=64
0.GGl	0.Gl	0.d]	0.gl
==	==	==	==
*-	*-	*-	*-
!!!RDF**kern: l=long note in original notation
!!!RDF**kern: i=editorial accidental
!!!ENC:	Jesse Rodin; Victoria Chang 2011/04/02
!!!END:	2011/01/01/
!!!EED:	Jesse Rodin
!!!EEV:	2011/04/06/
!!!SMS: Grapheus 1539
!!!SMS: Smijers, No. 19, afl. 43 (after G1539)
!!!SMS1: Ed. Blume. Josquin des Pres, Missa Da pacem, in: Cw, 20 
!!!SMS2: (Wolfenbuttel 1932) (after G1539).
!!attribution-level@Jos: 4 (questionable)
!!!ONB:	Translated from MusicXML and edited on 2011/04/06/ by Craig Sapp
!!muse2ps: T^@{OPR}^u^@{ONM}{. }@{OTL}^C^Bauldeweyn/Josquin?/Mouton?\n@{SCT}^i2I100v85,90,85,150c95Q16
